src/GFX/branch_icon_Green.svg

<?xml version="1.0" encoding="UTF-8" standalone="no"?>
<!DOCTYPE svg PUBLIC "-//W3C//DTD SVG 1.1//EN" "http://www.w3.org/Graphics/SVG/1.1/DTD/svg11.dtd">
<svg width="100%" height="100%" viewBox="0 0 160 160" version="1.1" xmlns="http://www.w3.org/2000/svg" xmlns:xlink="http://www.w3.org/1999/xlink" xml:space="preserve" xmlns:serif="http://www.serif.com/" style="fill-rule:evenodd;clip-rule:evenodd;stroke-linejoin:round;">
    <g id="Layer_2" transform="matrix(1,0,0,1,5.285,14.96)">
        <g id="Layer_1-2" transform="matrix(1,0,0,1,1.25498,-1.25158)">
            <g transform="matrix(1,0,0,1,0,10.4828)">
                <path d="M18.2,116C18.316,118.216 17.521,120.385 16,122C14.283,123.795 11.872,124.765 9.39,124.66C4.233,124.66 -0.01,120.417 -0.01,115.26C-0.01,110.103 4.233,105.86 9.39,105.86C10.673,105.856 11.945,106.094 13.14,106.56C14.246,106.992 15.236,107.677 16.03,108.56L14.37,110.22C13.79,109.531 13.053,108.993 12.22,108.65C11.327,108.265 10.363,108.071 9.39,108.08C7.52,108.028 5.708,108.752 4.39,110.08C1.726,112.98 1.726,117.49 4.39,120.39C5.711,121.715 7.52,122.439 9.39,122.39C11.017,122.449 12.611,121.912 13.87,120.88C15.082,119.831 15.824,118.339 15.93,116.74L9.35,116.74L9.35,114.57L18.08,114.57C18.162,115.042 18.202,115.521 18.2,116Z" style="fill:rgb(128,128,128);fill-rule:nonzero;"/>
            </g>
            <g transform="matrix(1,0,0,1,0,10.4828)">
                <path d="M20.29,118.09C20.231,116.349 20.873,114.655 22.07,113.39C23.258,112.16 24.91,111.484 26.62,111.53C28.325,111.478 29.974,112.155 31.15,113.39C32.36,114.649 33.013,116.344 32.96,118.09C33.021,119.837 32.367,121.535 31.15,122.79C29.974,124.025 28.325,124.702 26.62,124.65C24.91,124.696 23.258,124.02 22.07,122.79C20.871,121.526 20.229,119.831 20.29,118.09ZM22.6,118.09C22.549,119.274 22.966,120.431 23.76,121.31C24.513,122.082 25.547,122.519 26.625,122.519C27.703,122.519 28.737,122.082 29.49,121.31C31.033,119.462 31.033,116.748 29.49,114.9C28.754,114.098 27.714,113.641 26.625,113.641C25.536,113.641 24.496,114.098 23.76,114.9C22.971,115.77 22.554,116.916 22.6,118.09Z" style="fill:rgb(128,128,128);fill-rule:nonzero;"/>
            </g>
            <g transform="matrix(1,0,0,1,0,10.4828)">
                <path d="M41,130.08C40.344,130.088 39.691,130.001 39.06,129.82C38.478,129.652 37.923,129.402 37.41,129.08C36.947,128.781 36.529,128.418 36.17,128C35.819,127.565 35.548,127.07 35.37,126.54L37.56,125.63C37.8,126.335 38.259,126.945 38.87,127.37C39.498,127.794 40.242,128.014 41,128C42.121,128.068 43.217,127.644 44,126.84C44.723,125.968 45.082,124.85 45,123.72L45,122.54L44.9,122.54C44.459,123.206 43.848,123.741 43.13,124.09C42.38,124.469 41.55,124.661 40.71,124.65C39.119,124.663 37.599,123.975 36.56,122.77C35.421,121.482 34.809,119.809 34.85,118.09C34.81,116.38 35.422,114.717 36.56,113.44C37.594,112.224 39.114,111.524 40.71,111.53C41.551,111.523 42.381,111.718 43.13,112.1C43.848,112.445 44.459,112.977 44.9,113.64L45,113.64L45,111.93L47.22,111.93L47.22,123.72C47.315,125.435 46.704,127.116 45.53,128.37C44.32,129.538 42.68,130.157 41,130.08ZM41.07,122.54C42.137,122.572 43.164,122.12 43.86,121.31C45.361,119.446 45.361,116.764 43.86,114.9C43.169,114.081 42.142,113.617 41.07,113.64C40,113.627 38.977,114.089 38.28,114.9C37.513,115.781 37.109,116.922 37.15,118.09C37.101,119.259 37.507,120.402 38.28,121.28C38.984,122.1 40.02,122.562 41.1,122.54L41.07,122.54Z" style="fill:rgb(128,128,128);fill-rule:nonzero;"/>
            </g>
            <g transform="matrix(1,0,0,1,0,10.4828)">
                <rect x="50.55" y="106.25" width="2.32" height="18" style="fill:rgb(128,128,128);fill-rule:nonzero;"/>
            </g>
            <g transform="matrix(1,0,0,1,0,10.4828)">
                <path d="M61.59,124.65C59.9,124.7 58.268,124.022 57.11,122.79C55.925,121.518 55.292,119.827 55.35,118.09C55.296,116.366 55.908,114.685 57.06,113.4C58.176,112.167 59.778,111.483 61.44,111.53C63.081,111.455 64.675,112.102 65.8,113.3C66.958,114.699 67.537,116.488 67.42,118.3L67.42,118.55L57.72,118.55C57.703,119.646 58.137,120.703 58.92,121.47C59.649,122.175 60.625,122.57 61.639,122.57C63.137,122.57 64.509,121.709 65.16,120.36L67.22,121.36C66.694,122.368 65.897,123.209 64.92,123.79C63.911,124.378 62.758,124.676 61.59,124.65ZM57.89,116.65L65,116.65C64.961,115.839 64.601,115.076 64,114.53C63.3,113.935 62.398,113.63 61.48,113.68C60.656,113.663 59.854,113.952 59.23,114.49C58.556,115.024 58.083,115.772 57.89,116.61L57.89,116.65Z" style="fill:rgb(128,128,128);fill-rule:nonzero;"/>
            </g>
            <g transform="matrix(1,0,0,1,0,10.4828)">
                <path d="M93.29,116C93.396,118.221 92.585,120.391 91.05,122C89.333,123.795 86.922,124.765 84.44,124.66C79.283,124.66 75.04,120.417 75.04,115.26C75.04,110.103 79.283,105.86 84.44,105.86C85.723,105.856 86.995,106.094 88.19,106.56C89.296,106.992 90.286,107.677 91.08,108.56L89.42,110.22C88.838,109.533 88.101,108.995 87.27,108.65C86.377,108.265 85.413,108.071 84.44,108.08C82.57,108.028 80.758,108.752 79.44,110.08C76.776,112.98 76.776,117.49 79.44,120.39C80.761,121.715 82.57,122.439 84.44,122.39C86.064,122.449 87.655,121.912 88.91,120.88C90.121,119.848 90.873,118.376 91,116.79L84.44,116.79L84.44,114.62L93.16,114.62C93.247,115.075 93.291,115.537 93.29,116Z" style="fill:rgb(52,168,83);fill-rule:nonzero;"/>
            </g>
            <g transform="matrix(1,0,0,1,0,10.4828)">
                <path d="M98,124.25L95.7,124.25L95.7,111.93L97.91,111.93L97.91,113.93L98,113.93C98.279,113.222 98.79,112.63 99.45,112.25C100.085,111.818 100.832,111.579 101.6,111.56C102.184,111.544 102.766,111.646 103.31,111.86L102.6,114.1C102.164,113.961 101.707,113.903 101.25,113.93C100.381,113.944 99.559,114.334 99,115C98.362,115.66 98.004,116.542 98,117.46L98,124.25Z" style="fill:rgb(52,168,83);fill-rule:nonzero;"/>
            </g>
            <g transform="matrix(1,0,0,1,0,10.4828)">
                <path d="M110.11,124.65C108.42,124.701 106.787,124.023 105.63,122.79C104.445,121.518 103.812,119.827 103.87,118.09C103.816,116.366 104.428,114.685 105.58,113.4C106.696,112.167 108.298,111.483 109.96,111.53C111.601,111.455 113.195,112.102 114.32,113.3C115.478,114.699 116.057,116.488 115.94,118.3L115.94,118.55L106.26,118.55C106.251,119.647 106.688,120.701 107.47,121.47C108.199,122.175 109.175,122.57 110.189,122.57C111.687,122.57 113.059,121.709 113.71,120.36L115.77,121.36C115.241,122.366 114.445,123.207 113.47,123.79C112.452,124.384 111.288,124.682 110.11,124.65ZM106.41,116.65L113.47,116.65C113.438,115.837 113.077,115.072 112.47,114.53C111.769,113.936 110.867,113.632 109.95,113.68C109.126,113.66 108.323,113.949 107.7,114.49C107.044,115.032 106.59,115.779 106.41,116.61L106.41,116.65Z" style="fill:rgb(52,168,83);fill-rule:nonzero;"/>
            </g>
            <g transform="matrix(1,0,0,1,0,10.4828)">
                <path d="M124.21,124.65C122.52,124.7 120.888,124.022 119.73,122.79C118.545,121.518 117.912,119.827 117.97,118.09C117.916,116.366 118.528,114.685 119.68,113.4C120.796,112.167 122.398,111.483 124.06,111.53C125.701,111.455 127.295,112.102 128.42,113.3C129.578,114.699 130.157,116.488 130.04,118.3L130.04,118.55L120.36,118.55C120.351,119.647 120.788,120.701 121.57,121.47C122.299,122.175 123.275,122.57 124.289,122.57C125.787,122.57 127.159,121.709 127.81,120.36L129.87,121.36C129.341,122.366 128.545,123.207 127.57,123.79C126.552,124.384 125.388,124.682 124.21,124.65ZM120.51,116.65L127.58,116.65C127.541,115.839 127.181,115.076 126.58,114.53C125.879,113.936 124.977,113.632 124.06,113.68C123.236,113.66 122.433,113.949 121.81,114.49C121.151,115.03 120.693,115.777 120.51,116.61L120.51,116.65Z" style="fill:rgb(52,168,83);fill-rule:nonzero;"/>
            </g>
            <g transform="matrix(1,0,0,1,0,10.4828)">
                <path d="M132.65,111.93L134.87,111.93L134.87,113.64L134.97,113.64C135.364,113 135.924,112.478 136.59,112.13C137.283,111.739 138.065,111.533 138.86,111.53C140.152,111.445 141.42,111.918 142.34,112.83C143.212,113.849 143.65,115.171 143.56,116.51L143.56,124.25L141.25,124.25L141.25,116.66C141.197,114.66 140.197,113.66 138.25,113.66C137.349,113.655 136.494,114.069 135.94,114.78C135.319,115.533 134.989,116.484 135.01,117.46L135.01,124.27L132.69,124.27L132.65,111.93Z" style="fill:rgb(52,168,83);fill-rule:nonzero;"/>
            </g>
        </g>
        <g id="Layer_2-2" transform="matrix(1,0,0,1,1.25498,-1.25158)">
            <path d="M108,55.79C108,66.737 104.737,75.473 98.21,82C90.877,89.74 81.273,93.61 69.4,93.61C58.544,93.818 48.073,89.522 40.49,81.75C32.603,73.857 28.66,64.143 28.66,52.61C28.66,41.077 32.603,31.367 40.49,23.48C48.075,15.715 58.548,11.43 69.4,11.65C74.986,11.615 80.526,12.654 85.72,14.71C90.545,16.56 94.864,19.528 98.32,23.37L91.09,30.6C88.567,27.592 85.351,25.241 81.72,23.75C77.824,22.098 73.631,21.261 69.4,21.29C61.259,21.125 53.403,24.338 47.71,30.16C41.87,36.16 38.95,43.643 38.95,52.61C38.95,61.577 41.87,69.063 47.71,75.07C53.405,80.888 61.26,84.1 69.4,83.94C77.207,83.94 83.707,81.75 88.9,77.37C94.093,72.99 97.093,66.963 97.9,59.29L69.4,59.29L69.4,49.87L107.4,49.87C107.771,51.822 107.972,53.803 108,55.79Z" style="fill:rgb(52,168,83);fill-rule:nonzero;"/>
            <path d="M107.1,40.66C107.1,40.66 94.6,2.09 146.93,2.5C146.93,2.5 147.2,52.7 107.1,40.66Z" style="fill:none;fill-rule:nonzero;stroke:rgb(52,168,83);stroke-width:5px;"/>
            <path d="M107.1,40.66C107.1,40.66 122,32 130.07,20.43" style="fill:none;fill-rule:nonzero;stroke:rgb(52,168,83);stroke-width:5px;"/>
        </g>
    </g>
</svg>

<svg xmlns="http://www.w3.org/2000/svg" viewBox="0 0 149.43 130.08"><defs><style>.cls-1{fill:gray;}.cls-2{fill:#34a853;}.cls-3{fill:none;stroke:#34a853;stroke-linejoin:round;stroke-width:5px;}</style></defs><title>branch_iconAsset 15</title><g id="Layer_2" data-name="Layer 2"><g id="Layer_1-2" data-name="Layer 1"><path class="cls-1" d="M18.2,116A8.13,8.13,0,0,1,16,122a8.64,8.64,0,0,1-6.61,2.66,9.4,9.4,0,1,1,0-18.8,10.24,10.24,0,0,1,3.75.7,7.62,7.62,0,0,1,2.89,2l-1.66,1.66a5.59,5.59,0,0,0-2.15-1.57,7,7,0,0,0-2.83-.57,6.78,6.78,0,0,0-5,2,7.62,7.62,0,0,0,0,10.31,6.81,6.81,0,0,0,5,2,6.69,6.69,0,0,0,4.48-1.51,6,6,0,0,0,2.06-4.14H9.35v-2.17h8.73A8.17,8.17,0,0,1,18.2,116Z"/><path class="cls-1" d="M20.29,118.09a6.52,6.52,0,0,1,1.78-4.7,6.1,6.1,0,0,1,4.55-1.86,6,6,0,0,1,4.53,1.86,6.5,6.5,0,0,1,1.81,4.7,6.43,6.43,0,0,1-1.81,4.7,6,6,0,0,1-4.53,1.86,6.1,6.1,0,0,1-4.55-1.86A6.5,6.5,0,0,1,20.29,118.09Zm2.31,0a4.51,4.51,0,0,0,1.16,3.22,4,4,0,0,0,5.73,0,5,5,0,0,0,0-6.41,3.89,3.89,0,0,0-5.73,0A4.49,4.49,0,0,0,22.6,118.09Z"/><path class="cls-1" d="M41,130.08a6.74,6.74,0,0,1-1.94-.26,6.49,6.49,0,0,1-1.65-.74A5.74,5.74,0,0,1,36.17,128a4.72,4.72,0,0,1-.8-1.46l2.19-.91a3.49,3.49,0,0,0,1.31,1.74A3.68,3.68,0,0,0,41,128,3.86,3.86,0,0,0,44,126.84,4.39,4.39,0,0,0,45,123.72v-1.18h-.1a4.46,4.46,0,0,1-1.77,1.55,5.22,5.22,0,0,1-2.42.56,5.42,5.42,0,0,1-4.15-1.88,6.82,6.82,0,0,1-1.71-4.68,6.75,6.75,0,0,1,1.71-4.65,5.42,5.42,0,0,1,4.15-1.91,5.23,5.23,0,0,1,2.42.57,4.43,4.43,0,0,1,1.77,1.54H45v-1.71h2.22v11.79a6.29,6.29,0,0,1-1.69,4.65A6.12,6.12,0,0,1,41,130.08Zm.07-7.54a3.54,3.54,0,0,0,2.79-1.23,5.11,5.11,0,0,0,0-6.41,3.55,3.55,0,0,0-2.79-1.26,3.62,3.62,0,0,0-2.79,1.26,4.61,4.61,0,0,0-1.13,3.19,4.54,4.54,0,0,0,1.13,3.19A3.62,3.62,0,0,0,41.1,122.54Z"/><path class="cls-1" d="M52.87,106.25v18H50.55v-18Z"/><path class="cls-1" d="M61.59,124.65a5.91,5.91,0,0,1-4.48-1.86,6.57,6.57,0,0,1-1.76-4.7,6.71,6.71,0,0,1,1.71-4.69,5.69,5.69,0,0,1,4.38-1.87,5.63,5.63,0,0,1,4.36,1.77,7.12,7.12,0,0,1,1.62,5l0,.25H57.72a4,4,0,0,0,1.2,2.92,3.91,3.91,0,0,0,6.24-1.11l2.06,1a6.12,6.12,0,0,1-2.3,2.43A6.33,6.33,0,0,1,61.59,124.65Zm-3.7-8H65a3.06,3.06,0,0,0-1-2.12,3.59,3.59,0,0,0-2.52-.85,3.34,3.34,0,0,0-2.25.81A3.79,3.79,0,0,0,57.89,116.61Z"/><path class="cls-2" d="M93.29,116a8.13,8.13,0,0,1-2.24,6,8.64,8.64,0,0,1-6.61,2.66,9.4,9.4,0,1,1,0-18.8,10.24,10.24,0,0,1,3.75.7,7.62,7.62,0,0,1,2.89,2l-1.66,1.66a5.66,5.66,0,0,0-2.15-1.57,7,7,0,0,0-2.83-.57,6.78,6.78,0,0,0-5,2,7.62,7.62,0,0,0,0,10.31,6.81,6.81,0,0,0,5,2,6.66,6.66,0,0,0,4.47-1.51A6,6,0,0,0,91,116.79H84.44v-2.17h8.72A7.26,7.26,0,0,1,93.29,116Z"/><path class="cls-2" d="M98,124.25H95.7V111.93h2.21v2H98a3.36,3.36,0,0,1,1.45-1.68,4,4,0,0,1,2.15-.69,4.36,4.36,0,0,1,1.71.3l-.71,2.24a3.73,3.73,0,0,0-1.35-.17A3,3,0,0,0,99,115a3.56,3.56,0,0,0-1,2.46Z"/><path class="cls-2" d="M110.11,124.65a5.9,5.9,0,0,1-4.48-1.86,6.57,6.57,0,0,1-1.76-4.7,6.71,6.71,0,0,1,1.71-4.69,5.69,5.69,0,0,1,4.38-1.87,5.63,5.63,0,0,1,4.36,1.77,7.12,7.12,0,0,1,1.62,5l0,.25h-9.68a4.05,4.05,0,0,0,1.21,2.92,3.91,3.91,0,0,0,6.24-1.11l2.06,1a6.19,6.19,0,0,1-2.3,2.43A6.33,6.33,0,0,1,110.11,124.65Zm-3.7-8h7.06a3,3,0,0,0-1-2.12,3.61,3.61,0,0,0-2.52-.85,3.31,3.31,0,0,0-2.25.81A3.79,3.79,0,0,0,106.41,116.61Z"/><path class="cls-2" d="M124.21,124.65a5.91,5.91,0,0,1-4.48-1.86,6.57,6.57,0,0,1-1.76-4.7,6.71,6.71,0,0,1,1.71-4.69,5.69,5.69,0,0,1,4.38-1.87,5.63,5.63,0,0,1,4.36,1.77,7.12,7.12,0,0,1,1.62,5l0,.25h-9.68a4.05,4.05,0,0,0,1.21,2.92,3.91,3.91,0,0,0,6.24-1.11l2.06,1a6.19,6.19,0,0,1-2.3,2.43A6.33,6.33,0,0,1,124.21,124.65Zm-3.7-8h7.07a3.06,3.06,0,0,0-1-2.12,3.61,3.61,0,0,0-2.52-.85,3.31,3.31,0,0,0-2.25.81A3.79,3.79,0,0,0,120.51,116.61Z"/><path class="cls-2" d="M132.65,111.93h2.22v1.71h.1a4.17,4.17,0,0,1,1.62-1.51,4.65,4.65,0,0,1,2.27-.6,4.52,4.52,0,0,1,3.48,1.3,5.13,5.13,0,0,1,1.22,3.68v7.74h-2.31v-7.59q-.08-3-3-3a2.91,2.91,0,0,0-2.31,1.12,4.07,4.07,0,0,0-.93,2.68v6.81h-2.32Z"/></g><g id="Layer_2-2" data-name="Layer 2"><path class="cls-2" d="M108,55.79Q108,72.21,98.21,82q-11,11.61-28.81,11.61A39.34,39.34,0,0,1,40.49,81.75Q28.66,69.91,28.66,52.61T40.49,23.48A39.3,39.3,0,0,1,69.4,11.65a43.61,43.61,0,0,1,16.32,3.06,32.69,32.69,0,0,1,12.6,8.66L91.09,30.6a24.26,24.26,0,0,0-9.37-6.85A31,31,0,0,0,69.4,21.29a29.5,29.5,0,0,0-21.69,8.87q-8.76,9-8.76,22.45t8.76,22.46A29.54,29.54,0,0,0,69.4,83.94q11.71,0,19.5-6.57t9-18.08H69.4V49.87h38A34.24,34.24,0,0,1,108,55.79Z"/><path class="cls-3" d="M107.1,40.66S94.6,2.09,146.93,2.5C146.93,2.5,147.2,52.7,107.1,40.66Z"/><path class="cls-3" d="M107.1,40.66S122,32,130.07,20.43"/></g></g></svg>
